X: 0791
M: 4/4
L: 1/8
K: Bm
g | Tf2Bf dBfB | f/^g/a ef cAec | Tf2Bf dBfd | ecac B/B/B B :|
    FB  B>c dBcA | EA A>B Tc>dec | dBdb cAce | dfec B/B/B B |]

